X: 1642
T: Kapunda Rifle Schottische
C:W.C.Oldham (published 1861)
B: australian traditional tunes wiki
M:4/4
L:1/8
R: Schottische
Q: 1/4=100
K:G
V:1 
|"G" B2AB c>B c>A|d2D>G B4|"D7"c2DF A4|"G"B2BD G4|
B2AB c>B c>A|d2DGB4|"D7"c2DF A4|"G"G>F G>A G4|
"G" B2AB c>B c>A|d2D>G B4|"D7"c2DF A4|"G"B2BD G4|
B2AB c>B c>A|d2DGB4|"D7"c2DF A4|"G"G>F G>A G4||
"G"g3f e>d ^c>d|edgb d3d|"D7"dcfa c3c|"G"cBdg B3B|
g3f e>d ^c>d|edgb d3d|"D7"dcfa c3c|"G"g2 g>gg4|
"G"g3f e>d ^c>d|edgb d3d|"D7"dcfa c3c|"G"cBdg B3B|
g3f e>d ^c>d|edgb d3d|"D7"dcfa c3c|"G"g2 g>gg4||
"G" BdBd Bdgf|"D7"e2 c>c c2 cB|AcAc Acfe|"G"d2B>B B2 dc|
BdBd Bdba|"C"g2e>ee4|"D7"feAc edFA|"G"G2G>G G2d2|
"G" BdBd Bdgf|"D7"e2 c>c c2 cB|AcAc Acfe|"G"d2B>B B2 dc|
BdBd Bdba|"C"g2e>ee4|"D7"feAc edFA|"G"G2G>G G2d2||
V:2 
G4 A3-A/2F/2|G2 B,2 D4|A2 A,C F4|G2 G,B, D4|
G4 A3-A/2F/2| G2 B,2 D4| A2 A,D F4| D2 C2 B,4|
G4 A>G A>F| G,A, B,A, G,B, A,G,| A,4 C2 B,C| D4 DC B,D|
G4 A>G A>F| GD B,C D2 CB,| A,G, A,D F2 FE| D>^C D>E D3G||
B2>F2 A>G F>G| B4 G2 AG| F4 F2 GF| E3G2<D2G|
B2>F2 A>G F>G| B2 G2 D2 AG| F4 F2 GF| D2 B>A B4|
B2>F2 A>G F>G| B2 G2 D2 AG| F4 F2 GF| E3G2<D2G|
B2>F2 A>G F>G| B4 G2 AG| F4 F2 GF| D2 B>A B4||
G2 G,B, G2 DF| A2 F2 D2 x2| F2 A,=C F2 DA| G2 D2 D2 x2|
G2 G,B, G2 DF| E2 C2 A,2 GA| A2 D2 F2 DF| B6 x2|
G2 G,B, G2 DF| A2 F2 D2 x2| F2 A,C F2 DA| G2 D2 D2 x2|
G2 D2 G2 DF| E2 G>G G2 GA| A2 D2 AF DC| B,2 B,>B, B,2z2||
% abcbook-tune_id 6342d53ad9dc29e5d01275b1


% abcbook-boost 0
% abcbook-tablature 
% abcbook-transpose 
% abcbook-lastupdated 1665324375646
% abcbook-soundfonts 
% abcbook-repeats 1
% NFF Book 2019

